images/quote.svg

<svg fill="none" height="43" viewBox="0 0 61 43" width="61" xmlns="http://www.w3.org/2000/svg"><g fill="#563a5f" fill-opacity=".1"><path d="m.00344849 25.8256h12.85715151l-8.57151 17.1428h12.85711l8.5715-17.1428v-25.714272h-25.71425151z"/><path d="m34.2892.111328v25.714272h12.8571l-8.5715 17.1428h12.8572l8.5714-17.1428v-25.714272z"/></g></svg>

<svg width="61" height="43" viewBox="0 0 61 43" fill="none" xmlns="http://www.w3.org/2000/svg">
<path d="M0.00344849 25.8256H12.8606L4.28909 42.9684H17.1462L25.7177 25.8256V0.111328H0.00344849V25.8256Z" fill="#563A5F" fill-opacity="0.1"/>
<path d="M34.2892 0.111328V25.8256H47.1463L38.5748 42.9684H51.432L60.0034 25.8256V0.111328H34.2892Z" fill="#563A5F" fill-opacity="0.1"/>
</svg>
